public/avatar/body/278.svg

<svg xmlns:xlink="http://www.w3.org/1999/xlink" height="82" width="84.85" xmlns="http://www.w3.org/2000/svg"><g transform="translate(37.4 42.25)"><use height="38" transform="translate(-11.95 -17.45)" width="32.05" xlink:href="#a"/><use height="38.95" transform="translate(-12.45 -17.95)" width="33.05" xlink:href="#b"/><use height="29.4" transform="translate(-15.15 -.6)" width="38.05" xlink:href="#c"/></g><defs><path d="M27.35 7.4q2.15 4.15 3.55 8.75 1.45 4.7 1.15 9.5-.35 4.95-4.2 8.1-3.8 3.2-8.75 4.05l-2.6.2q-3.6 0-7.05-1.15-4.65-1.6-7.1-5.5Q-.2 27.4.05 23q.2-4.4 2-9.3Q3.85 8.75 7 5.05 10.1 1.3 14.7.1l1.8-.1q1.9.05 3.7.8 4.75 2.05 7.15 6.6" fill="#aa7355" fill-rule="evenodd" transform="translate(-.05)" id="d"/><path d="M27.35 7.4Q24.95 2.85 20.2.8 17.55-.3 14.7.1 10.1 1.3 7 5.05q-3.15 3.7-4.95 8.65-1.8 4.9-2 9.3-.25 4.4 2.3 8.35 2.45 3.9 7.1 5.5 4.65 1.55 9.65.95 4.95-.85 8.75-4.05 3.85-3.15 4.2-8.1.3-4.8-1.15-9.5-1.4-4.6-3.55-8.75Z" fill="none" stroke="#000" stroke-linecap="round" stroke-linejoin="round" transform="translate(.45 .5)" id="e"/><use height="38" width="32.05" xlink:href="#d" id="a"/><use height="38.95" width="33.05" xlink:href="#e" id="b"/><g id="c" fill-rule="evenodd"><path d="m18.15 18.15-.85-.75-.2-1.15h.7l.35 1.9m-26.55.6-.9-.35 3.55-.9q4.4 1.4 8.95 1.5h3.9q4.75-.3 8.95-2.8l.8.05-1.9 1.05q-2.9 1.55-6.3 2.05l-5 .35-.75-.05-7.1-.9-1.85-.35q-1.25-.4-2.35.35" fill="#9b5f97" transform="translate(15.15 .6)"/><path d="m17.3 17.4-8.1 3.3-.55-1.35q3.4-.5 6.3-2.05l1.9-1.05h.25l.2 1.15m-17.35 4q-1.9-.05-3.65-.75l-4.7-1.9q1.1-.75 2.35-.35l1.85.35 7.1.9-2.3-.05-.65 1.8" fill="#f7cdef" transform="translate(15.15 .6)"/><path d="m9.2 20.7-9.25.7.65-1.8 2.3.05.75.05 5-.35.55 1.35" fill="#cea3ca" transform="translate(15.15 .6)"/><path d="m18.15 18.15 1 .85-.25 1.8q2.9 1.75 1.8 5.05-3.35 1.35-6.9 1.85l-1.75-.25q-2.75-.7-5.35.3-1.2.3-2.2-.3-1.2.95-2.7 1.15l-4.95-.55q-2.2.75-4.55.75-2.85 0-5.3-1.45-.9-.55-.75-1.55.3-1.6 1.6-2.5l-.5-1.4q-.4-1.1 0-1.95l2.85-1.6-.65-.45.25-.8-1.6-1.75q.1-3.65-.55-7.2-.15-.9-.85-1.35-1.7-.15-1.95-1.5l1-1.6-.05-2.95Q-13.45-.5-12-.6l1.1 1 1.55 1.7q1.55 1.6 3.3 2.85l1.1.75Q0 7.75 4.65 10.4q1.95-1 3.85-2.05l1.5-1.2q3.8-3.6 7.95-6.9Q19.4-.8 21.2-.55l.15.25q1.1 1.4.65 2.85l-.45.3.9.65q.65.55.35 1.2l-.65.75-.7-.6.15-.9-1.15-.7.65-1.45-.65-1.65-4 2.6L9.9 8.4 7.45 10l-1.8.85-1.2.45q-2.2-1.7-4.8-2.6-4.5-1.45-8.05-4.5-1.7-1.35-2.55-3.25-.45-.95-1.4-.75-1.35.25-1.4 1.65l.5 2.15-.9 1.05.3.45.65.45.75.3 1.85 5.05.35.45q-.1 1-.5 1.9l-.2 1.05.2.6 1.3.8-.15 1.2q.3.3.75.2l2.7-.45 2.4-.25 8.8.5q2.15.3 4.35-.45l3.15-1.1 2.45-.6 3.25.35-.15-1.25h.45q.6 0 .35-.75l-.25-.8-.05-.7 1.25.3-1.05 4-1-.05h-.95l-.8-.05-1.55-.05-2.3.75-3.65.95-6 .05-2.4-.3q-3-1.15-5.9-.1l-3.55.9.9.35 4.7 1.9q1.75.7 3.65.75l9.25-.7 8.1-3.3.85.75M4 26.25l-.05-1.85.4-.15.5.5-.45 1.55.25.2 2.65.2 4.1-.05 1.2.15q2.95.15 5.8-.75 1.55-.35 1.75-1.85L20 23.05q-.55-1.25-1.8-2.1l.15-1.25-.2-.55-.25-.4-.55-.45q-.25-.2-.5-.3l-1.1.85q-1.9 1.35-4.2 2-3.1 1-6.2 1.25l-8.55-.5-7.15-2.35L-12.1 21l.2.9 1 1.55-1.6 1.4-.4.65.3.6q1.2 1.8 3.6 1.85l3.05-.15.95-.15 1.3-.2.8-.15 2.4.5.85.3q1.95.25 3.3-.95l.25-.25.1-.65" fill="#4c0245" transform="translate(15.15 .6)"/><path d="m-10.75 15.3-.2-.6.2-1.05q.4-.9.5-1.9l2.1.45-2.6 3.1m-1.7-9.05-.75-.3-.65-.45-.3-.45.9-1.05-.5-2.15 1-.2 2.05 2.15q-.7 0-1.2.75-.55.7-.55 1.7M-.7 10.4l1.6.6q4.4 1.3 6.25 5.55L5.4 16.5l-9.65-1.15-.9.15-4.25.55q2.3-3.95 6.9-5.1l1.8-.55M4 26.25l-.1.65-.25.25.35-.9M-.5 27.8l-2.4-.5-.8.15.3-.2-.95-.55-6-.6 3.7 1.1 1.55.45h.1l-.95.15-4.95-.6-.2.05 2.1.7q-2.4-.05-3.6-1.85l-.3-.6.4-.65 1.6-1.4-1-1.55-.2-.9 1.75-1.75 7.15 2.35-.75-.05 4.2 1.75-9.3 1.95 11.25-.6.25.35Q2.4 27.35 0 27.7l-.5.1m12.05-6.95q2.3-.65 4.2-2l1.1-.85q.25.1.5.3l.55.45.25.4.2.55-.15 1.25q1.25.85 1.8 2.1l.15 1.15q-.2 1.5-1.75 1.85l.65-.3-10.4.05 2.75.85-4.1.05 2.5-.25-4.4-1.6-.15-.5.3-.55 6-2.95M9.5 23.2l-3.5.9 1.2-.05 3.05-.6L15 22.7l3.3-.45-.35-.6q-.35-.8-1.3-.85l-5.3 2.05-1.85.35m1.15-1.1h.1q3.05-1.2 6.55-2l.2-1-4.75 1.85-2.1 1.15m6.7 1-2.75.05-5.2.9 8.7-.85-.75-.1M8 24.7l10.3.1.85-1.15L8 24.7m-14.4-14 .5-1.9 1.65-.05 1.7.8q-2.1-.15-3.7.95l-.15.2m-4.55 10.6q2.3-.5 4.7.05L-9.6 20.2l-1.3-.05-.3.75.25.4m0 .95.2.05.15.1q.25.2.2.55l-.45.95 2.95-.45q1.8-.75 3.95-.85l-7-.35m5.2 1.7 1.75-.5 2.95-.25-5.5.65-2.15.3-1.3.6.85-.15 3.4-.65m5.7 2.5 1.8-1.3-8.1.45q3.3-.1 6.3.85" fill="#ef59cf" transform="translate(15.15 .6)"/><path d="m18.1 14.25.15 1.25-3.25-.35-2.45.6-3.15 1.1q-2.2.75-4.35.45l-8.8-.5-2.4.25-2.7.45q-.45.1-.75-.2l.15-1.2.05-.05 4.25-.55.9-.15L5.4 16.5l1.75.05Q5.3 12.3.9 11l-1.6-.6-1.85-.85-1.7-.8-2.4-1.1Q-8.6 6.9-9.7 5.2l-1-1.4-2.05-2.15-1 .2q.05-1.4 1.4-1.65.95-.2 1.4.75.85 1.9 2.55 3.25 3.55 3.05 8.05 4.5 2.6.9 4.8 2.6l1.2-.45 1.8-.85L9.9 8.4l6.55-5.65 4-2.6.65 1.65q-1.7.45-2.8 1.65L15.7 5.9l-1.15.9-1.1.9-1.25 1.05-1.1.7-5.2 3.05.45.9 1.2 1.75.5.8q2.9-.35 5.8-1.65l.95-.2 2 .05 1.3.1" fill="#f9a7ed" transform="translate(15.15 .6)"/><path d="m18.6 12 .05.7.25.8q.25.75-.35.75-1.25-1.85-2.9-3.6l-1.05-1.1q-1.05-1.05-2.4-.8l1.25-1.05 1.8.8 1.7 1.15.8 1.55.25 1.05.2-.55.4.3m2.5-10.2-.65 1.45 1.15.7-.15.9q-.6-.7-1.4-.85-2.2-.05-2.95 2l-.45 1.55-2.1-.75 1.15-.9 2.6-2.45q1.1-1.2 2.8-1.65m-10 7.65.35.05q4.05.6 4.75 4.55l.6.1-2-.05-.95.2q-2.9 1.3-5.8 1.65l-.5-.8-1.2-1.75-.45-.9 5.2-3.05" fill="#e234c1" transform="translate(15.15 .6)"/><path d="M19.85 12.3 18.6 12l-.4-.3.65-2-2.2-2.15L17.1 6q.75-2.05 2.95-2 .8.15 1.4.85l.7.6.5.45-1.75 5.75-1.05.65m-30.1-.55-.35-.45-1.85-5.05q0-1 .55-1.7.5-.75 1.2-.75l1 1.4q1.1 1.7 3.05 2.45-1.7.9-2.05 2.9l-.05 1.3q.7-2.3 2.85-3.05l-.5 1.9-1.75 1.5-2.1-.45" fill="#bf06a5" transform="translate(15.15 .6)"/><path d="M18.55 14.25h-.45l-1.3-.1-.6-.1q-.7-3.95-4.75-4.55l-.35-.05 1.1-.7q1.35-.25 2.4.8l1.05 1.1q1.65 1.75 2.9 3.6m-28 1.85-1.3-.8 2.6-3.1 1.75-1.5.15-.2q1.6-1.1 3.7-.95l1.85.85-1.8.55q-4.6 1.15-6.9 5.1l-.05.05m26.1-8.55 2.2 2.15-.65 2-.2.55-.25-1.05-.8-1.55-1.7-1.15-1.8-.8 1.1-.9 2.1.75M7.3 26.7l-2.65-.2-.25-.2.45-1.55-.5-.5-.4.15.05 1.85-.35.9q-1.35 1.2-3.3.95l-.85-.3.5-.1q2.4-.35 2.45-2.7l-.25-.35-11.25.6 9.3-1.95-4.2-1.75.75.05 8.55.5q3.1-.25 6.2-1.25l-6 2.95-.3.55.15.5 4.4 1.6-2.5.25m-11 .75-1.3.2h-.1l-1.55-.45-3.7-1.1 6 .6.95.55-.3.2M9.5 23.2l1.85-.35 5.3-2.05q.95.05 1.3.85l.35.6-3.3.45-4.75.75-3.05.6-1.2.05 3.5-.9M8 24.7l11.15-1.05-.85 1.15L8 24.7M-5.9 8.8q-2.15.75-2.85 3.05l.05-1.3q.35-2 2.05-2.9l2.4 1.1-1.65.05m-5.05 13.45 7 .35q-2.15.1-3.95.85l-2.95.45.45-.95q.05-.35-.2-.55l-.15-.1-.2-.05" fill="#af05a7" transform="translate(15.15 .6)"/><path d="m-5.95 27.8-3.05.15-2.1-.7.2-.05 4.95.6m24.35-1.75q-2.85.9-5.8.75l-1.2-.15-2.75-.85 10.4-.05-.65.3m-1.05-2.95.75.1-8.7.85 5.2-.9 2.75-.05m-6.7-1 2.1-1.15 4.75-1.85-.2 1q-3.5.8-6.55 2h-.1m-21.6-.8-.25-.4.3-.75 1.3.05 3.35 1.15q-2.4-.55-4.7-.05m5.2 2.65-3.4.65-.85.15 1.3-.6 2.15-.3 5.5-.65-2.95.25-1.75.5m5.7 2.5q-3-.95-6.3-.85l8.1-.45-1.8 1.3" fill="#ef9ee0" transform="translate(15.15 .6)"/></g></defs></svg>

<?xml version="1.0" encoding="UTF-8" standalone="no"?>
<svg xmlns:xlink="http://www.w3.org/1999/xlink" height="82.0px" width="84.85px" xmlns="http://www.w3.org/2000/svg">
  <g transform="matrix(1.0, 0.0, 0.0, 1.0, 37.4, 42.25)">
    <use height="38.0" transform="matrix(1.0, 0.0, 0.0, 1.0, -11.95, -17.45)" width="32.05" xlink:href="#sprite0"/>
    <use height="38.95" transform="matrix(1.0, 0.0, 0.0, 1.0, -12.45, -17.95)" width="33.05" xlink:href="#sprite1"/>
    <use height="29.4" transform="matrix(1.0, 0.0, 0.0, 1.0, -15.15, -0.6)" width="38.05" xlink:href="#shape2"/>
  </g>
  <defs>
    <g id="sprite0" transform="matrix(1.0, 0.0, 0.0, 1.0, -0.05, 0.0)">
      <use height="38.0" transform="matrix(1.0, 0.0, 0.0, 1.0, 0.05, 0.0)" width="32.05" xlink:href="#shape0"/>
    </g>
    <g id="shape0" transform="matrix(1.0, 0.0, 0.0, 1.0, -0.05, 0.0)">
      <path d="M27.35 7.4 Q29.5 11.55 30.9 16.15 32.35 20.85 32.05 25.65 31.7 30.6 27.85 33.75 24.05 36.95 19.1 37.8 L16.5 38.0 Q12.9 38.0 9.45 36.85 4.8 35.25 2.35 31.35 -0.2 27.4 0.05 23.0 0.25 18.6 2.05 13.7 3.85 8.75 7.0 5.05 10.1 1.3 14.7 0.1 L16.5 0.0 Q18.4 0.05 20.2 0.8 24.95 2.85 27.35 7.4" fill="#aa7355" fill-rule="evenodd" stroke="none"/>
    </g>
    <g id="sprite1" transform="matrix(1.0, 0.0, 0.0, 1.0, 0.45, 0.5)">
      <use height="38.95" transform="matrix(1.0, 0.0, 0.0, 1.0, -0.45, -0.5)" width="33.05" xlink:href="#shape1"/>
    </g>
    <g id="shape1" transform="matrix(1.0, 0.0, 0.0, 1.0, 0.45, 0.5)">
      <path d="M27.35 7.4 Q24.95 2.85 20.2 0.8 17.55 -0.3 14.7 0.1 10.1 1.3 7.0 5.05 3.85 8.75 2.05 13.7 0.25 18.6 0.05 23.0 -0.2 27.4 2.35 31.35 4.8 35.25 9.45 36.85 14.1 38.4 19.1 37.8 24.05 36.95 27.85 33.75 31.7 30.6 32.05 25.65 32.35 20.85 30.9 16.15 29.5 11.55 27.35 7.4 Z" fill="none" stroke="#000000" stroke-linecap="round" stroke-linejoin="round" stroke-width="1.0"/>
    </g>
    <g id="shape2" transform="matrix(1.0, 0.0, 0.0, 1.0, 15.15, 0.6)">
      <path d="M18.15 18.15 L17.3 17.4 17.1 16.25 17.8 16.25 18.15 18.15 M-8.4 18.75 L-9.3 18.4 -5.75 17.5 Q-1.35 18.9 3.2 19.0 L7.1 19.0 Q11.85 18.7 16.05 16.2 L16.85 16.25 14.95 17.3 Q12.05 18.85 8.65 19.35 L3.65 19.7 2.9 19.65 -4.2 18.75 -6.05 18.4 Q-7.3 18.0 -8.4 18.75" fill="#9b5f97" fill-rule="evenodd" stroke="none"/>
      <path d="M17.3 17.4 L9.2 20.7 8.65 19.35 Q12.05 18.85 14.95 17.3 L16.85 16.25 17.1 16.25 17.3 17.4 M-0.05 21.4 Q-1.95 21.35 -3.7 20.65 L-8.4 18.75 Q-7.3 18.0 -6.05 18.4 L-4.2 18.75 2.9 19.65 0.6 19.6 -0.05 21.4" fill="#f7cdef" fill-rule="evenodd" stroke="none"/>
      <path d="M9.2 20.7 L-0.05 21.4 0.6 19.6 2.9 19.65 3.65 19.7 8.65 19.35 9.2 20.7" fill="#cea3ca" fill-rule="evenodd" stroke="none"/>
      <path d="M18.15 18.15 L19.15 19.0 18.9 20.8 Q21.8 22.55 20.7 25.85 17.35 27.2 13.8 27.7 L12.05 27.45 Q9.3 26.75 6.7 27.75 5.5 28.05 4.5 27.45 3.3 28.4 1.8 28.6 L-3.15 28.05 Q-5.35 28.8 -7.7 28.8 -10.55 28.8 -13.0 27.35 -13.9 26.8 -13.75 25.8 -13.45 24.2 -12.15 23.3 L-12.65 21.9 Q-13.05 20.8 -12.65 19.95 L-9.8 18.35 -10.45 17.9 -10.2 17.1 -11.8 15.35 Q-11.7 11.7 -12.35 8.15 -12.5 7.25 -13.2 6.8 -14.9 6.65 -15.15 5.3 L-14.15 3.7 -14.2 0.75 Q-13.45 -0.5 -12.0 -0.6 L-10.9 0.4 -9.35 2.1 Q-7.8 3.7 -6.05 4.95 L-4.95 5.7 Q0.0 7.75 4.65 10.4 6.6 9.4 8.5 8.35 L10.0 7.15 Q13.8 3.55 17.95 0.25 19.4 -0.8 21.2 -0.55 L21.35 -0.3 Q22.45 1.1 22.0 2.55 L21.55 2.85 22.45 3.5 Q23.1 4.05 22.8 4.7 L22.15 5.45 21.45 4.85 21.6 3.95 20.45 3.25 21.1 1.8 20.45 0.15 16.45 2.75 9.9 8.4 7.45 10.0 5.65 10.85 4.45 11.3 Q2.25 9.6 -0.35 8.7 -4.85 7.25 -8.4 4.2 -10.1 2.85 -10.95 0.95 -11.4 0.0 -12.35 0.2 -13.7 0.45 -13.75 1.85 L-13.25 4.0 -14.15 5.05 -13.85 5.5 -13.2 5.95 -12.45 6.25 -10.6 11.3 -10.25 11.75 Q-10.35 12.75 -10.75 13.65 L-10.95 14.7 -10.75 15.3 -9.45 16.1 -9.6 17.3 Q-9.3 17.6 -8.85 17.5 L-6.15 17.05 -3.75 16.8 5.05 17.3 Q7.2 17.6 9.4 16.85 L12.55 15.75 15.0 15.15 18.25 15.5 18.1 14.25 18.55 14.25 Q19.15 14.25 18.9 13.5 L18.65 12.7 18.6 12.0 19.85 12.3 18.8 16.3 17.8 16.25 17.1 16.25 16.85 16.25 16.05 16.2 14.5 16.15 12.2 16.9 8.55 17.85 2.55 17.9 0.15 17.6 Q-2.85 16.45 -5.75 17.5 L-9.3 18.4 -8.4 18.75 -3.7 20.65 Q-1.95 21.35 -0.05 21.4 L9.2 20.7 17.3 17.4 18.15 18.15 M4.0 26.25 L3.95 24.4 4.35 24.25 4.85 24.75 4.4 26.3 4.65 26.5 7.3 26.7 11.4 26.65 12.6 26.8 Q15.55 26.95 18.4 26.05 19.95 25.7 20.15 24.2 L20.0 23.05 Q19.45 21.8 18.2 20.95 L18.35 19.7 18.15 19.15 17.9 18.75 17.35 18.3 Q17.1 18.1 16.85 18.0 L15.75 18.85 Q13.85 20.2 11.55 20.85 8.45 21.85 5.35 22.1 L-3.2 21.6 -10.35 19.25 -12.1 21.0 -11.9 21.9 -10.9 23.45 -12.5 24.85 -12.9 25.5 -12.6 26.1 Q-11.4 27.9 -9.0 27.95 L-5.95 27.8 -5.0 27.65 -3.7 27.45 -2.9 27.3 -0.5 27.8 0.35 28.1 Q2.3 28.35 3.65 27.15 L3.9 26.9 4.0 26.25" fill="#4c0245" fill-rule="evenodd" stroke="none"/>
      <path d="M-10.75 15.3 L-10.95 14.7 -10.75 13.65 Q-10.35 12.75 -10.25 11.75 L-8.15 12.2 -10.75 15.3 M-12.45 6.25 L-13.2 5.95 -13.85 5.5 -14.15 5.05 -13.25 4.0 -13.75 1.85 -12.75 1.65 -10.7 3.8 Q-11.4 3.8 -11.9 4.55 -12.45 5.25 -12.45 6.25 M-0.7 10.4 L0.9 11.0 Q5.3 12.3 7.15 16.55 L5.4 16.5 -4.25 15.35 -5.15 15.5 -9.4 16.05 Q-7.1 12.1 -2.5 10.95 L-0.7 10.4 M4.0 26.25 L3.9 26.9 3.65 27.15 4.0 26.25 M-0.5 27.8 L-2.9 27.3 -3.7 27.45 -3.4 27.25 -4.35 26.7 -10.35 26.1 -6.65 27.2 -5.1 27.65 -5.0 27.65 -5.95 27.8 -10.9 27.2 -11.1 27.25 -9.0 27.95 Q-11.4 27.9 -12.6 26.1 L-12.9 25.5 -12.5 24.85 -10.9 23.45 -11.9 21.9 -12.1 21.0 -10.35 19.25 -3.2 21.6 -3.95 21.55 0.25 23.3 -9.05 25.25 2.2 24.65 2.45 25.0 Q2.4 27.35 0.0 27.7 L-0.5 27.8 M11.55 20.85 Q13.85 20.2 15.75 18.85 L16.85 18.0 Q17.1 18.1 17.35 18.3 L17.9 18.75 18.15 19.15 18.35 19.7 18.2 20.95 Q19.45 21.8 20.0 23.05 L20.15 24.2 Q19.95 25.7 18.4 26.05 L19.05 25.75 8.65 25.8 11.4 26.65 7.3 26.7 9.8 26.45 5.4 24.85 5.25 24.35 5.55 23.8 11.55 20.85 M9.5 23.2 L6.0 24.1 7.2 24.05 10.25 23.45 15.0 22.7 18.3 22.25 17.95 21.65 Q17.6 20.85 16.65 20.8 L11.35 22.85 9.5 23.2 M10.65 22.1 L10.75 22.1 Q13.8 20.9 17.3 20.1 L17.5 19.1 12.75 20.95 10.65 22.1 M17.35 23.1 L14.6 23.15 9.4 24.05 18.1 23.2 17.35 23.1 M8.0 24.7 L18.3 24.8 19.15 23.65 8.0 24.7 M-6.4 10.7 L-5.9 8.8 -4.25 8.75 -2.55 9.55 Q-4.65 9.4 -6.25 10.5 L-6.4 10.7 M-10.95 21.3 Q-8.65 20.8 -6.25 21.35 L-9.6 20.2 -10.9 20.15 -11.2 20.9 -10.95 21.3 M-10.95 22.25 L-10.75 22.3 -10.6 22.4 Q-10.35 22.6 -10.4 22.95 L-10.85 23.9 -7.9 23.45 Q-6.1 22.7 -3.95 22.6 L-10.95 22.25 M-5.75 23.95 L-4.0 23.45 -1.05 23.2 -6.55 23.85 -8.7 24.15 -10.0 24.75 -9.15 24.6 -5.75 23.95 M-0.05 26.45 L1.75 25.15 -6.35 25.6 Q-3.05 25.5 -0.05 26.45" fill="#ef59cf" fill-rule="evenodd" stroke="none"/>
      <path d="M18.1 14.25 L18.25 15.5 15.0 15.15 12.55 15.75 9.4 16.85 Q7.2 17.6 5.05 17.3 L-3.75 16.8 -6.15 17.05 -8.85 17.5 Q-9.3 17.6 -9.6 17.3 L-9.45 16.1 -9.4 16.05 -5.15 15.5 -4.25 15.35 5.4 16.5 7.15 16.55 Q5.3 12.3 0.9 11.0 L-0.7 10.4 -2.55 9.55 -4.25 8.75 -6.65 7.65 Q-8.6 6.9 -9.7 5.2 L-10.7 3.8 -12.75 1.65 -13.75 1.85 Q-13.7 0.45 -12.35 0.2 -11.4 0.0 -10.95 0.95 -10.1 2.85 -8.4 4.2 -4.85 7.25 -0.35 8.7 2.25 9.6 4.45 11.3 L5.65 10.85 7.45 10.0 9.9 8.4 16.45 2.75 20.45 0.15 21.1 1.8 Q19.4 2.25 18.3 3.45 L15.7 5.9 14.55 6.8 13.45 7.7 12.2 8.75 11.1 9.45 5.9 12.5 6.35 13.4 7.55 15.15 8.05 15.95 Q10.95 15.6 13.85 14.3 L14.8 14.1 16.8 14.15 18.1 14.25" fill="#f9a7ed" fill-rule="evenodd" stroke="none"/>
      <path d="M18.6 12.0 L18.65 12.7 18.9 13.5 Q19.15 14.25 18.55 14.25 17.3 12.4 15.65 10.65 L14.6 9.55 Q13.55 8.5 12.2 8.75 L13.45 7.7 15.25 8.5 16.95 9.65 17.75 11.2 18.0 12.25 18.2 11.7 18.6 12.0 M21.1 1.8 L20.45 3.25 21.6 3.95 21.45 4.85 Q20.85 4.15 20.05 4.0 17.85 3.95 17.1 6.0 L16.65 7.55 14.55 6.8 15.7 5.9 18.3 3.45 Q19.4 2.25 21.1 1.8 M11.1 9.45 L11.45 9.5 Q15.5 10.1 16.2 14.05 L16.8 14.15 14.8 14.1 13.85 14.3 Q10.95 15.6 8.05 15.95 L7.55 15.15 6.35 13.4 5.9 12.5 11.1 9.45" fill="#e234c1" fill-rule="evenodd" stroke="none"/>
      <path d="M19.85 12.3 L18.6 12.0 18.2 11.7 18.85 9.7 16.65 7.55 17.1 6.0 Q17.85 3.95 20.05 4.0 20.85 4.15 21.45 4.85 L22.15 5.45 22.65 5.9 20.9 11.65 19.85 12.3 M-10.25 11.75 L-10.6 11.3 -12.45 6.25 Q-12.45 5.25 -11.9 4.55 -11.4 3.8 -10.7 3.8 L-9.7 5.2 Q-8.6 6.9 -6.65 7.65 -8.35 8.55 -8.7 10.55 L-8.75 11.85 Q-8.05 9.55 -5.9 8.8 L-6.4 10.7 -8.15 12.2 -10.25 11.75" fill="#bf06a5" fill-rule="evenodd" stroke="none"/>
      <path d="M18.55 14.25 L18.1 14.25 16.8 14.15 16.2 14.05 Q15.5 10.1 11.45 9.5 L11.1 9.45 12.2 8.75 Q13.55 8.5 14.6 9.55 L15.65 10.65 Q17.3 12.4 18.55 14.25 M-9.45 16.1 L-10.75 15.3 -8.15 12.2 -6.4 10.7 -6.25 10.5 Q-4.65 9.4 -2.55 9.55 L-0.7 10.4 -2.5 10.95 Q-7.1 12.1 -9.4 16.05 L-9.45 16.1 M16.65 7.55 L18.85 9.7 18.2 11.7 18.0 12.25 17.75 11.2 16.95 9.65 15.25 8.5 13.45 7.7 14.55 6.8 16.65 7.55 M7.3 26.7 L4.65 26.5 4.4 26.3 4.85 24.75 4.35 24.25 3.95 24.4 4.0 26.25 3.65 27.15 Q2.3 28.35 0.35 28.1 L-0.5 27.8 0.0 27.7 Q2.4 27.35 2.45 25.0 L2.2 24.65 -9.05 25.25 0.25 23.3 -3.95 21.55 -3.2 21.6 5.35 22.1 Q8.45 21.85 11.55 20.85 L5.55 23.8 5.25 24.35 5.4 24.85 9.8 26.45 7.3 26.7 M-3.7 27.45 L-5.0 27.65 -5.1 27.65 -6.65 27.2 -10.35 26.1 -4.35 26.7 -3.4 27.25 -3.7 27.45 M9.5 23.2 L11.35 22.85 16.65 20.8 Q17.6 20.85 17.95 21.65 L18.3 22.25 15.0 22.7 10.25 23.45 7.2 24.05 6.0 24.1 9.5 23.2 M8.0 24.7 L19.15 23.65 18.3 24.8 8.0 24.7 M-5.9 8.8 Q-8.05 9.55 -8.75 11.85 L-8.7 10.55 Q-8.35 8.55 -6.65 7.65 L-4.25 8.75 -5.9 8.8 M-10.95 22.25 L-3.95 22.6 Q-6.1 22.7 -7.9 23.45 L-10.85 23.9 -10.4 22.95 Q-10.35 22.6 -10.6 22.4 L-10.75 22.3 -10.95 22.25" fill="#af05a7" fill-rule="evenodd" stroke="none"/>
      <path d="M-5.95 27.8 L-9.0 27.95 -11.1 27.25 -10.9 27.2 -5.95 27.8 M18.4 26.05 Q15.55 26.95 12.6 26.8 L11.4 26.65 8.65 25.8 19.05 25.75 18.4 26.05 M17.35 23.1 L18.1 23.2 9.4 24.05 14.6 23.15 17.35 23.1 M10.65 22.1 L12.75 20.95 17.5 19.1 17.3 20.1 Q13.8 20.9 10.75 22.1 L10.65 22.1 M-10.95 21.3 L-11.2 20.9 -10.9 20.15 -9.6 20.2 -6.25 21.35 Q-8.65 20.8 -10.95 21.3 M-5.75 23.95 L-9.15 24.6 -10.0 24.75 -8.7 24.15 -6.55 23.85 -1.05 23.2 -4.0 23.45 -5.75 23.95 M-0.05 26.45 Q-3.05 25.5 -6.35 25.6 L1.75 25.15 -0.05 26.45" fill="#ef9ee0" fill-rule="evenodd" stroke="none"/>
    </g>
  </defs>
</svg>
